packages/core/src/svgs/tokens/mono/BTA.svg

<svg width="24" height="24" viewBox="0 0 24 24" fill="none" xmlns="http://www.w3.org/2000/svg">
<path fill-rule="evenodd" clip-rule="evenodd" d="M11.9998 21.1116C14.4382 21.1116 16.7768 20.143 18.501 18.4187C20.2252 16.6945 21.1939 14.3559 21.1939 11.9175C21.1939 9.47912 20.2252 7.14051 18.501 5.41629C16.7768 3.69205 14.4382 2.72339 11.9998 2.72339C9.56129 2.72339 7.22278 3.69205 5.49856 5.41629C3.77433 7.14051 2.80566 9.47912 2.80566 11.9175C2.80566 14.3559 3.77433 16.6945 5.49856 18.4187C7.22278 20.143 9.56129 21.1116 11.9998 21.1116ZM9.81151 15.7057C9.61207 15.3234 9.48072 14.9093 9.42321 14.4821C9.31355 13.4086 9.26962 12.3351 9.2255 11.2584C9.21524 11.008 9.20495 10.7564 9.19385 10.5057L9.17621 9.7233C9.17372 9.53952 9.17088 9.35518 9.16804 9.17062C9.15072 8.04369 9.13319 6.90416 9.19385 5.78213C9.19385 5.77441 9.19537 5.76675 9.19833 5.75962C9.20128 5.75248 9.20562 5.746 9.21109 5.74054C9.21655 5.73507 9.22303 5.73074 9.23016 5.72779C9.2373 5.72484 9.24495 5.72331 9.25267 5.72331C9.4891 5.68883 9.72339 5.66056 9.95645 5.63241C10.2802 5.59332 10.6018 5.5545 10.9233 5.49978C10.9408 5.49978 10.9467 5.50567 10.9467 5.5233C10.9703 8.21742 11.0291 10.9056 11.2056 13.5998C11.2174 13.8409 11.235 14.1057 11.2998 14.3292C11.4763 14.9762 11.8821 15.4291 12.4998 15.6704C12.7527 15.7703 13.0115 15.7644 13.2762 15.7469C13.6822 15.7007 14.0591 15.5134 14.3409 15.2175C14.3519 15.2066 14.3667 15.2006 14.3821 15.2006C14.3975 15.2006 14.4123 15.2066 14.4233 15.2175L15.8174 16.5115C15.8292 16.5233 15.8292 16.5351 15.8174 16.5409C15.5468 16.8175 15.2527 17.0704 14.9351 17.2939C14.3434 17.6717 13.6475 17.8529 12.9468 17.8116C12.4269 17.8455 11.9092 17.7181 11.4645 17.4468C11.4218 17.4201 11.3762 17.393 11.329 17.3648C11.1677 17.2685 10.9879 17.1611 10.8468 17.0292C10.3995 16.6784 10.0442 16.2242 9.81151 15.7057ZM14.6997 14.6763C15.0527 13.835 14.9292 12.9116 14.2879 12.2528C14.1268 12.0915 13.9351 11.9641 13.7238 11.8782C13.5127 11.7924 13.2865 11.7497 13.0585 11.7527C12.4892 11.7829 11.9204 11.8241 11.3527 11.8763C11.323 11.1999 11.2976 10.5235 11.2762 9.84683C11.2762 9.83503 11.2821 9.82336 11.2998 9.82336C11.8442 9.76585 12.3893 9.71479 12.935 9.67032C13.5174 9.62914 14.0821 9.7174 14.6114 9.96446C15.1388 10.21 15.6027 10.573 15.9678 11.0258C16.3328 11.4785 16.5893 12.0089 16.7173 12.5763C16.8468 13.3586 16.8939 14.1057 16.688 14.8881C16.5362 15.3901 16.3016 15.8633 15.9939 16.2881H15.988L14.5939 14.9704C14.5825 14.9603 14.5751 14.9464 14.573 14.9313C14.5708 14.9162 14.5741 14.901 14.5821 14.8881C14.6232 14.8292 14.6644 14.7527 14.6997 14.6763ZM8.98799 11.7821C8.98212 11.4939 8.96447 11.2057 8.94094 10.9115C8.93362 10.8165 8.93036 10.7095 8.92694 10.5979C8.92211 10.4398 8.917 10.2726 8.89976 10.1174C8.89901 10.1067 8.89614 10.0961 8.8913 10.0863C8.88645 10.0766 8.87974 10.0679 8.87153 10.0608C8.86334 10.0538 8.85381 10.0483 8.84352 10.0449C8.83322 10.0415 8.82234 10.0402 8.81152 10.0409L7.12918 10.2115C7.11747 10.2129 7.10389 10.2141 7.089 10.2154C6.96923 10.2262 6.76446 10.2447 6.76446 10.3703C6.7527 10.8939 6.77035 11.4821 6.81153 12.1468C6.81153 12.2174 6.84682 12.2469 6.91741 12.2469C7.56099 12.1738 8.20628 12.117 8.8527 12.0763C8.98799 12.0763 8.98799 11.8879 8.98799 11.7821Z" fill="white"/>
<path fill-rule="evenodd" clip-rule="evenodd" d="M12 21.6173C14.5554 21.6173 17.0062 20.6021 18.8132 18.7952C20.6201 16.9882 21.6353 14.5374 21.6353 11.982C21.6353 9.42657 20.6201 6.97575 18.8132 5.16879C17.0062 3.36182 14.5554 2.34668 12 2.34668C9.44458 2.34668 6.99381 3.36182 5.18686 5.16879C3.37988 6.97575 2.36475 9.42657 2.36475 11.982C2.36475 14.5374 3.37988 16.9882 5.18686 18.7952C6.99381 20.6021 9.44458 21.6173 12 21.6173ZM12 21.2408C14.4736 21.2408 16.8458 20.2582 18.5948 18.5091C20.3438 16.7601 21.3265 14.3878 21.3265 11.9143C21.3265 9.44071 20.3438 7.06855 18.5948 5.31949C16.8458 3.57044 14.4736 2.58784 12 2.58784C9.52721 2.58784 7.15578 3.57014 5.40729 5.31863C3.65878 7.06713 2.67648 9.43865 2.67648 11.9113C2.67648 14.3841 3.65878 16.7556 5.40729 18.5041C7.15578 20.2525 9.52721 21.2349 12 21.2349V21.2408Z" fill="white"/>
<path fill-rule="evenodd" clip-rule="evenodd" d="M22 12C22 14.6522 20.9464 17.1957 19.071 19.071C17.1957 20.9464 14.6522 22 12 22C9.34785 22 6.80429 20.9464 4.92892 19.071C3.05357 17.1957 2 14.6522 2 12C2 9.34785 3.05357 6.80429 4.92892 4.92892C6.80429 3.05357 9.34785 2 12 2C14.6522 2 17.1957 3.05357 19.071 4.92892C20.9464 6.80429 22 9.34785 22 12ZM11.9999 21.7469C13.2823 21.7469 14.552 21.4944 15.7367 21.0035C16.9214 20.5128 17.9979 19.7936 18.9046 18.8868C19.8113 17.9801 20.5305 16.9037 21.0214 15.7189C21.5121 14.5343 21.7646 13.2644 21.7646 11.9822C21.7646 10.6998 21.5121 9.43007 21.0214 8.24538C20.5305 7.06067 19.8113 5.98422 18.9046 5.07749C17.9979 4.17075 16.9214 3.45148 15.7367 2.96077C14.552 2.47004 13.2823 2.21747 11.9999 2.21747C9.41017 2.21747 6.92649 3.24625 5.09525 5.07749C3.26401 6.90873 2.23523 9.39246 2.23523 11.9822C2.23523 14.5719 3.26401 17.0557 5.09525 18.8868C6.92649 20.718 9.41017 21.7469 11.9999 21.7469Z" fill="white"/>
</svg>

<svg xmlns="http://www.w3.org/2000/svg" width="24" height="24" fill="none" viewBox="0 0 24 24">
    <path fill="#fff" fill-rule="evenodd" d="M12 21.112a9.194 9.194 0 1 0 0-18.388 9.194 9.194 0 0 0 0 18.388m-2.188-5.406a3.7 3.7 0 0 1-.389-1.224c-.11-1.073-.153-2.147-.197-3.224l-.032-.752-.018-.783-.008-.552c-.017-1.127-.035-2.267.026-3.389a.06.06 0 0 1 .059-.059q.354-.05.703-.09c.324-.04.646-.079.967-.133q.026-.001.024.023c.023 2.694.082 5.383.259 8.077.011.24.029.506.094.73.176.646.582 1.1 1.2 1.34.253.1.511.094.776.077a1.74 1.74 0 0 0 1.065-.53.06.06 0 0 1 .082 0l1.394 1.295q.018.018 0 .029c-.27.276-.564.53-.882.753a3.33 3.33 0 0 1-1.988.518 2.53 2.53 0 0 1-1.482-.365l-.136-.082a3 3 0 0 1-.482-.336 3.5 3.5 0 0 1-1.035-1.323m4.888-1.03c.353-.841.23-1.764-.412-2.423a1.7 1.7 0 0 0-1.23-.5q-.854.045-1.705.123-.044-1.014-.077-2.03c0-.011.006-.023.024-.023q.817-.086 1.635-.153a3.35 3.35 0 0 1 1.676.294 3.8 3.8 0 0 1 2.106 2.612c.13.783.177 1.53-.029 2.312a4.7 4.7 0 0 1-.694 1.4h-.006l-1.394-1.318a.064.064 0 0 1-.012-.082c.041-.059.082-.135.118-.212m-5.712-2.894a15 15 0 0 0-.047-.87q-.01-.146-.014-.314a6 6 0 0 0-.027-.48.08.08 0 0 0-.028-.057.08.08 0 0 0-.06-.02l-1.683.17-.04.004c-.12.011-.325.03-.325.155-.011.524.006 1.112.048 1.777 0 .07.035.1.105.1a39 39 0 0 1 1.936-.17c.135 0 .135-.19.135-.295" clip-rule="evenodd"/>
    <path fill="#fff" fill-rule="evenodd" d="M12 21.617a9.636 9.636 0 1 0 0-19.271 9.636 9.636 0 0 0 0 19.271m0-.376a9.326 9.326 0 1 0-9.324-9.33A9.324 9.324 0 0 0 12 21.235z" clip-rule="evenodd"/>
    <path fill="#fff" fill-rule="evenodd" d="M22 12a10 10 0 1 1-20 0 10 10 0 0 1 20 0m-10 9.747a9.76 9.76 0 0 0 9.021-6.028A9.765 9.765 0 1 0 12 21.747" clip-rule="evenodd"/>
</svg>
